X:2303
T:Bunch of Keys
R:Reel
C:Traditional
S:Fiddler's Fakebook
D:Kevin Burke, Sweeney's Dream, Folkways FW 8876
M:4/4
L:1/8
Q:1/4=200
K:F
GF|:DGGF G2Ac|B~G3 dGBG|DFFE F3B|A~F3 DFAF|
DGGF G2Ac|BGGA Bcde|fefd cAFA|1 ABAF DGGF:|2 B2AF DGGA||
dggf g2dg|~g2dg agfd|cffe efcf|~f2ag fAcf|
dggf g2dg|~g2 dg agfd|c~f3 cAFA|1 BGAF DGGA:|2 BGAF DGG2|
